dist/svg/workbench-manual.svg

<svg width="16" height="16" viewBox="0 0 16 16" fill="rgb(34, 34, 34)" xmlns="http://www.w3.org/2000/svg"><title>workbench-manual</title><g clip-path="url(#clip0_271_103)"><path d="M2.50101 5C2.94001 5 3.34701 4.877 3.70601 4.677L5.26401 6.326C4.47501 7.342 4.00101 8.614 4.00101 10C4.00101 13.314 6.68701 16 10.001 16C13.315 16 16.001 13.314 16.001 10C16.001 6.686 13.315 4 10.001 4C8.43401 4 7.01201 4.606 5.94301 5.589L4.46701 4.027C4.79701 3.603 5.00101 3.078 5.00101 2.5C5.00101 1.119 3.88201 0 2.50101 0C1.12001 0 0.00100708 1.119 0.00100708 2.5C0.00100708 3.881 1.12001 5 2.50101 5ZM10.001 5C12.758 5 15.001 7.243 15.001 10C15.001 12.757 12.758 15 10.001 15C7.24401 15 5.00101 12.757 5.00101 10C5.00101 7.243 7.24401 5 10.001 5ZM2.50101 1C3.32801 1 4.00101 1.673 4.00101 2.5C4.00101 3.327 3.32801 4 2.50101 4C1.67401 4 1.00101 3.327 1.00101 2.5C1.00101 1.673 1.67401 1 2.50101 1ZM7.79801 11.441L7.79201 11.431L7.21001 12.175L7.81401 12.783L8.57501 12.188C8.82601 12.353 9.11801 12.479 9.43301 12.548L9.45001 12.551L9.56401 13.5H10.439L10.553 12.568C10.884 12.497 11.177 12.372 11.438 12.203L11.428 12.209L12.158 12.782L12.775 12.161L12.189 11.422C12.354 11.171 12.48 10.879 12.549 10.565L12.552 10.547L13.501 10.438V9.563L12.565 9.445C12.493 9.114 12.369 8.821 12.2 8.56L12.206 8.57L12.783 7.826L12.166 7.209L11.418 7.813C11.167 7.651 10.874 7.529 10.56 7.461L10.543 7.458L10.438 6.5H9.56301L9.44501 7.436C9.11401 7.508 8.82001 7.632 8.56001 7.801L8.57001 7.795L7.81301 7.209L7.20901 7.813L7.81301 8.579C7.65001 8.83 7.52601 9.123 7.45701 9.436L7.45401 9.454L6.50001 9.563V10.438L7.43201 10.556C7.50301 10.887 7.62901 11.18 7.79801 11.441ZM10.001 8.833C10.645 8.833 11.167 9.355 11.167 10C11.167 10.645 10.645 11.167 10.001 11.167C9.35701 11.167 8.83401 10.645 8.83401 10C8.83401 9.355 9.35601 8.833 10.001 8.833Z" fill="rgb(34, 34, 34)" fill-opacity="1.00"/></g><defs><clipPath id="clip0_271_103"><rect width="16" height="16" fill="rgb(34, 34, 34)"/></clipPath></defs></svg>

<!-- Generated by Trend Micro Style Portal -->
<svg version="1.1" xmlns="http://www.w3.org/2000/svg" width="16" height="16" viewBox="0 0 16 16">
  <title>workbench-manual</title>
  <path fill="rgb(34,34,34)" d="M2.501 5c0.439 0 0.846-0.123 1.205-0.323l1.558 1.649c-0.789 1.016-1.263 2.288-1.263 3.674 0 3.314 2.686 6 6 6s6-2.686 6-6-2.686-6-6-6c-1.567 0-2.989 0.606-4.058 1.589l-1.476-1.562c0.33-0.424 0.534-0.949 0.534-1.527 0-1.381-1.119-2.5-2.5-2.5s-2.5 1.119-2.5 2.5 1.119 2.5 2.5 2.5zM10.001 5c2.757 0 5 2.243 5 5s-2.243 5-5 5-5-2.243-5-5 2.243-5 5-5zM2.501 1c0.827 0 1.5 0.673 1.5 1.5s-0.673 1.5-1.5 1.5-1.5-0.673-1.5-1.5 0.673-1.5 1.5-1.5zM7.798 11.441l-0.006-0.010-0.582 0.744 0.604 0.608 0.761-0.595c0.251 0.165 0.543 0.291 0.858 0.36l0.017 0.003 0.114 0.949h0.875l0.114-0.932c0.331-0.071 0.624-0.196 0.885-0.365l-0.010 0.006 0.73 0.573 0.617-0.621-0.586-0.739c0.165-0.251 0.291-0.543 0.36-0.857l0.003-0.018 0.949-0.109v-0.875l-0.936-0.118c-0.072-0.331-0.196-0.624-0.365-0.885l0.006 0.010 0.577-0.744-0.617-0.617-0.748 0.604c-0.251-0.162-0.544-0.284-0.858-0.352l-0.017-0.003-0.105-0.958h-0.875l-0.118 0.936c-0.331 0.072-0.625 0.196-0.885 0.365l0.010-0.006-0.757-0.586-0.604 0.604 0.604 0.766c-0.163 0.251-0.287 0.544-0.356 0.857l-0.003 0.018-0.954 0.109v0.875l0.932 0.118c0.071 0.331 0.196 0.624 0.365 0.885zM10.001 8.833c0.644 0 1.166 0.522 1.166 1.167s-0.522 1.167-1.166 1.167-1.167-0.522-1.167-1.167 0.522-1.167 1.167-1.167z"></path>
</svg>
